src/components/atoms/Icon/icons/case-dark-regular.svg

<svg width="24" height="24" xmlns="http://www.w3.org/2000/svg"><g fill="none" fill-rule="evenodd"><path d="M0 0h24v24H0V0zm10 5h4v2h-4V5zm0 0h4v2h-4V5z"/><path d="M10 16v-1H3.01L3 19c0 1.11.89 2 2 2h14c1.11 0 2-.89 2-2v-4h-7v1h-4zm10-9h-4.01V5l-2-2h-4l-2 2v2H4c-1.1 0-2 .9-2 2v3c0 1.11.89 2 2 2h6v-2h4v2h6c1.1 0 2-.9 2-2V9c0-1.1-.9-2-2-2zm-6 0h-4V5h4v2z" fill="#384C57" fill-rule="nonzero"/></g></svg>

<?xml version="1.0" encoding="UTF-8"?>
<svg width="24px" height="24px" viewBox="0 0 24 24" version="1.1" xmlns="http://www.w3.org/2000/svg" xmlns:xlink="http://www.w3.org/1999/xlink">
    <!-- Generator: Sketch 51.1 (57501) - http://www.bohemiancoding.com/sketch -->
    <title>Icon/24/case-dark</title>
    <desc>Created with Sketch.</desc>
    <defs></defs>
    <g id="Icon/24/case-dark" stroke="none" stroke-width="1" fill="none" fill-rule="evenodd">
        <g id="Shape">
            <path d="M0,0 L24,0 L24,24 L0,24 L0,0 Z M10,5 L14,5 L14,7 L10,7 L10,5 Z M10,5 L14,5 L14,7 L10,7 L10,5 Z"></path>
            <path d="M10,16 L10,15 L3.01,15 L3,19 C3,20.11 3.89,21 5,21 L19,21 C20.11,21 21,20.11 21,19 L21,15 L14,15 L14,16 L10,16 Z M20,7 L15.99,7 L15.99,5 L13.99,3 L9.99,3 L7.99,5 L7.99,7 L4,7 C2.9,7 2,7.9 2,9 L2,12 C2,13.11 2.89,14 4,14 L10,14 L10,12 L14,12 L14,14 L20,14 C21.1,14 22,13.1 22,12 L22,9 C22,7.9 21.1,7 20,7 Z M14,7 L10,7 L10,5 L14,5 L14,7 Z" fill="#384C57" fill-rule="nonzero"></path>
        </g>
    </g>
</svg>
